images/50620027.svg

<?xml version="1.0" encoding="UTF-8"?>
<svg xmlns="http://www.w3.org/2000/svg" xmlns:xlink="http://www.w3.org/1999/xlink" width="300pt" height="300pt" viewBox="0 0 300 300" version="1.1">
<defs>
<g>
<symbol overflow="visible" id="glyph0-0">
<path style="stroke:none;" d="M 0.453125 1.59375 L 0.453125 -6.34375 L 4.953125 -6.34375 L 4.953125 1.59375 Z M 0.953125 1.09375 L 4.453125 1.09375 L 4.453125 -5.84375 L 0.953125 -5.84375 Z M 0.953125 1.09375 "/>
</symbol>
<symbol overflow="visible" id="glyph0-1">
<path style="stroke:none;" d="M 3.546875 -5.953125 C 2.898438 -5.953125 2.382812 -5.710938 2 -5.234375 C 1.625 -4.753906 1.4375 -4.101562 1.4375 -3.28125 C 1.4375 -2.445312 1.625 -1.789062 2 -1.3125 C 2.382812 -0.832031 2.898438 -0.59375 3.546875 -0.59375 C 4.191406 -0.59375 4.703125 -0.832031 5.078125 -1.3125 C 5.453125 -1.789062 5.640625 -2.445312 5.640625 -3.28125 C 5.640625 -4.101562 5.453125 -4.753906 5.078125 -5.234375 C 4.703125 -5.710938 4.191406 -5.953125 3.546875 -5.953125 Z M 3.546875 -6.6875 C 4.460938 -6.6875 5.195312 -6.375 5.75 -5.75 C 6.300781 -5.132812 6.578125 -4.3125 6.578125 -3.28125 C 6.578125 -2.238281 6.300781 -1.410156 5.75 -0.796875 C 5.195312 -0.179688 4.460938 0.125 3.546875 0.125 C 2.617188 0.125 1.878906 -0.179688 1.328125 -0.796875 C 0.773438 -1.410156 0.5 -2.238281 0.5 -3.28125 C 0.5 -4.3125 0.773438 -5.132812 1.328125 -5.75 C 1.878906 -6.375 2.617188 -6.6875 3.546875 -6.6875 Z M 3.546875 -6.6875 "/>
</symbol>
<symbol overflow="visible" id="glyph0-2">
<path style="stroke:none;" d="M 0.890625 -6.5625 L 1.765625 -6.5625 L 1.765625 -3.875 L 5 -3.875 L 5 -6.5625 L 5.890625 -6.5625 L 5.890625 0 L 5 0 L 5 -3.125 L 1.765625 -3.125 L 1.765625 0 L 0.890625 0 Z M 0.890625 -6.5625 "/>
</symbol>
</g>
</defs>
<g id="surface17541">
<rect x="0" y="0" width="300" height="300" style="fill:rgb(100%,100%,100%);fill-opacity:1;stroke:none;"/>
<path style="fill:none;stroke-width:1.2;stroke-linecap:butt;stroke-linejoin:miter;stroke:rgb(100%,0%,0%);stroke-opacity:1;stroke-miterlimit:10;" d="M 103.488281 149.46875 L 97.902344 139.441406 "/>
<path style="fill:none;stroke-width:1.2;stroke-linecap:butt;stroke-linejoin:miter;stroke:rgb(0%,0%,0%);stroke-opacity:1;stroke-miterlimit:10;" d="M 97.902344 139.441406 L 92.320312 129.417969 "/>
<path style="fill:none;stroke-width:1.2;stroke-linecap:butt;stroke-linejoin:miter;stroke:rgb(0%,0%,0%);stroke-opacity:1;stroke-miterlimit:10;" d="M 126.4375 149.824219 L 114.960938 149.644531 "/>
<path style="fill:none;stroke-width:1.2;stroke-linecap:butt;stroke-linejoin:miter;stroke:rgb(100%,0%,0%);stroke-opacity:1;stroke-miterlimit:10;" d="M 114.960938 149.644531 L 103.488281 149.46875 "/>
<path style=" stroke:none;fill-rule:nonzero;fill:rgb(100%,100%,100%);fill-opacity:1;" d="M 99.488281 143.96875 L 107.488281 143.96875 L 107.488281 154.96875 L 99.488281 154.96875 Z M 99.488281 143.96875 "/>
<g style="fill:rgb(100%,0%,0%);fill-opacity:1;">
  <use xlink:href="#glyph0-1" x="99.488281" y="152.631836"/>
</g>
<path style="fill:none;stroke-width:1.2;stroke-linecap:butt;stroke-linejoin:miter;stroke:rgb(0%,0%,0%);stroke-opacity:1;stroke-miterlimit:10;" d="M 92.320312 129.417969 L 104.101562 109.71875 "/>
<path style="fill:none;stroke-width:1.2;stroke-linecap:butt;stroke-linejoin:miter;stroke:rgb(0%,0%,0%);stroke-opacity:1;stroke-miterlimit:10;" d="M 88.863281 124.675781 L 98.285156 108.917969 "/>
<path style="fill:none;stroke-width:1.2;stroke-linecap:butt;stroke-linejoin:miter;stroke:rgb(0%,0%,0%);stroke-opacity:1;stroke-miterlimit:10;" d="M 69.367188 129.0625 L 92.320312 129.417969 "/>
<path style="fill:none;stroke-width:1.2;stroke-linecap:butt;stroke-linejoin:miter;stroke:rgb(0%,0%,0%);stroke-opacity:1;stroke-miterlimit:10;" d="M 104.101562 109.71875 L 127.050781 110.074219 "/>
<path style="fill:none;stroke-width:1.2;stroke-linecap:butt;stroke-linejoin:miter;stroke:rgb(0%,0%,0%);stroke-opacity:1;stroke-miterlimit:10;" d="M 104.101562 109.71875 L 92.929688 89.667969 "/>
<path style="fill:none;stroke-width:1.2;stroke-linecap:butt;stroke-linejoin:miter;stroke:rgb(0%,0%,0%);stroke-opacity:1;stroke-miterlimit:10;" d="M 127.050781 110.074219 L 138.21875 130.125 "/>
<path style=" stroke:none;fill-rule:nonzero;fill:rgb(0%,0%,0%);fill-opacity:1;" d="M 138.21875 130.125 L 161.105469 134.527344 L 161.230469 126.429688 Z M 138.21875 130.125 "/>
<path style="fill:none;stroke-width:1.2;stroke-linecap:butt;stroke-linejoin:miter;stroke:rgb(0%,0%,0%);stroke-opacity:1;stroke-miterlimit:10;" d="M 138.21875 130.125 L 126.4375 149.824219 "/>
<path style="fill:none;stroke-width:1.2;stroke-linecap:butt;stroke-linejoin:miter;stroke:rgb(100%,0%,0%);stroke-opacity:1;stroke-miterlimit:10;" d="M 161.167969 130.476562 L 167.058594 120.628906 "/>
<path style="fill:none;stroke-width:1.2;stroke-linecap:butt;stroke-linejoin:miter;stroke:rgb(0%,0%,0%);stroke-opacity:1;stroke-miterlimit:10;" d="M 167.058594 120.628906 L 172.949219 110.78125 "/>
<path style=" stroke:none;fill-rule:nonzero;fill:rgb(100%,100%,100%);fill-opacity:1;" d="M 157.167969 124.976562 L 165.167969 124.976562 L 165.167969 135.976562 L 157.167969 135.976562 Z M 157.167969 124.976562 "/>
<g style="fill:rgb(100%,0%,0%);fill-opacity:1;">
  <use xlink:href="#glyph0-1" x="157.167969" y="133.639648"/>
</g>
<path style="fill:none;stroke-width:1.2;stroke-linecap:butt;stroke-linejoin:miter;stroke:rgb(0%,0%,0%);stroke-opacity:1;stroke-miterlimit:10;" d="M 175.308594 109.464844 L 169.726562 99.441406 "/>
<path style="fill:none;stroke-width:1.2;stroke-linecap:butt;stroke-linejoin:miter;stroke:rgb(100%,0%,0%);stroke-opacity:1;stroke-miterlimit:10;" d="M 169.726562 99.441406 L 164.140625 89.414062 "/>
<path style="fill:none;stroke-width:1.2;stroke-linecap:butt;stroke-linejoin:miter;stroke:rgb(0%,0%,0%);stroke-opacity:1;stroke-miterlimit:10;" d="M 170.589844 112.09375 L 165.007812 102.066406 "/>
<path style="fill:none;stroke-width:1.2;stroke-linecap:butt;stroke-linejoin:miter;stroke:rgb(100%,0%,0%);stroke-opacity:1;stroke-miterlimit:10;" d="M 165.007812 102.066406 L 159.421875 92.042969 "/>
<path style="fill:none;stroke-width:1.2;stroke-linecap:butt;stroke-linejoin:miter;stroke:rgb(0%,0%,0%);stroke-opacity:1;stroke-miterlimit:10;" d="M 172.949219 110.78125 L 195.898438 111.132812 "/>
<path style=" stroke:none;fill-rule:nonzero;fill:rgb(100%,100%,100%);fill-opacity:1;" d="M 153.78125 85.226562 L 161.78125 85.226562 L 161.78125 96.226562 L 153.78125 96.226562 Z M 153.78125 85.226562 "/>
<g style="fill:rgb(100%,0%,0%);fill-opacity:1;">
  <use xlink:href="#glyph0-1" x="153.78125" y="93.889648"/>
</g>
<path style="fill:none;stroke-width:1.2;stroke-linecap:butt;stroke-linejoin:miter;stroke:rgb(0%,0%,0%);stroke-opacity:1;stroke-miterlimit:10;" d="M 195.898438 111.132812 L 207.679688 91.433594 "/>
<path style="fill:none;stroke-width:1.2;stroke-linecap:butt;stroke-linejoin:miter;stroke:rgb(0%,0%,0%);stroke-opacity:1;stroke-miterlimit:10;" d="M 201.714844 111.9375 L 211.136719 96.175781 "/>
<path style="fill:none;stroke-width:1.2;stroke-linecap:butt;stroke-linejoin:miter;stroke:rgb(0%,0%,0%);stroke-opacity:1;stroke-miterlimit:10;" d="M 207.070312 131.1875 L 195.898438 111.132812 "/>
<path style="fill:none;stroke-width:1.2;stroke-linecap:butt;stroke-linejoin:miter;stroke:rgb(0%,0%,0%);stroke-opacity:1;stroke-miterlimit:10;" d="M 207.679688 91.433594 L 230.632812 91.789062 "/>
<path style="fill:none;stroke-width:1.2;stroke-linecap:butt;stroke-linejoin:miter;stroke:rgb(0%,0%,0%);stroke-opacity:1;stroke-miterlimit:10;" d="M 230.632812 91.789062 L 236.523438 81.941406 "/>
<path style="fill:none;stroke-width:1.2;stroke-linecap:butt;stroke-linejoin:miter;stroke:rgb(100%,0%,0%);stroke-opacity:1;stroke-miterlimit:10;" d="M 236.523438 81.941406 L 242.414062 72.089844 "/>
<path style="fill:none;stroke-width:1.2;stroke-linecap:butt;stroke-linejoin:miter;stroke:rgb(0%,0%,0%);stroke-opacity:1;stroke-miterlimit:10;" d="M 230.632812 91.789062 L 241.800781 111.839844 "/>
<path style="fill:none;stroke-width:1.2;stroke-linecap:butt;stroke-linejoin:miter;stroke:rgb(0%,0%,0%);stroke-opacity:1;stroke-miterlimit:10;" d="M 227.03125 96.421875 L 235.964844 112.464844 "/>
<path style=" stroke:none;fill-rule:nonzero;fill:rgb(100%,100%,100%);fill-opacity:1;" d="M 235.414062 66.589844 L 250.414062 66.589844 L 250.414062 77.589844 L 235.414062 77.589844 Z M 235.414062 66.589844 "/>
<g style="fill:rgb(100%,0%,0%);fill-opacity:1;">
  <use xlink:href="#glyph0-1" x="235.414062" y="75.25293"/>
  <use xlink:href="#glyph0-2" x="242.755859" y="75.25293"/>
</g>
<path style="fill:none;stroke-width:1.2;stroke-linecap:butt;stroke-linejoin:miter;stroke:rgb(0%,0%,0%);stroke-opacity:1;stroke-miterlimit:10;" d="M 241.800781 111.839844 L 253.273438 112.019531 "/>
<path style="fill:none;stroke-width:1.2;stroke-linecap:butt;stroke-linejoin:miter;stroke:rgb(100%,0%,0%);stroke-opacity:1;stroke-miterlimit:10;" d="M 253.273438 112.019531 L 264.75 112.195312 "/>
<path style="fill:none;stroke-width:1.2;stroke-linecap:butt;stroke-linejoin:miter;stroke:rgb(0%,0%,0%);stroke-opacity:1;stroke-miterlimit:10;" d="M 241.800781 111.839844 L 230.019531 131.539062 "/>
<path style=" stroke:none;fill-rule:nonzero;fill:rgb(100%,100%,100%);fill-opacity:1;" d="M 257.75 106.695312 L 272.75 106.695312 L 272.75 117.695312 L 257.75 117.695312 Z M 257.75 106.695312 "/>
<g style="fill:rgb(100%,0%,0%);fill-opacity:1;">
  <use xlink:href="#glyph0-1" x="257.75" y="115.358398"/>
  <use xlink:href="#glyph0-2" x="265.091797" y="115.358398"/>
</g>
<path style="fill:none;stroke-width:1.2;stroke-linecap:butt;stroke-linejoin:miter;stroke:rgb(0%,0%,0%);stroke-opacity:1;stroke-miterlimit:10;" d="M 230.019531 131.539062 L 235.601562 141.566406 "/>
<path style="fill:none;stroke-width:1.2;stroke-linecap:butt;stroke-linejoin:miter;stroke:rgb(100%,0%,0%);stroke-opacity:1;stroke-miterlimit:10;" d="M 235.601562 141.566406 L 241.1875 151.59375 "/>
<path style="fill:none;stroke-width:1.2;stroke-linecap:butt;stroke-linejoin:miter;stroke:rgb(0%,0%,0%);stroke-opacity:1;stroke-miterlimit:10;" d="M 230.019531 131.539062 L 207.070312 131.1875 "/>
<path style="fill:none;stroke-width:1.2;stroke-linecap:butt;stroke-linejoin:miter;stroke:rgb(0%,0%,0%);stroke-opacity:1;stroke-miterlimit:10;" d="M 227.808594 126.105469 L 209.445312 125.820312 "/>
<path style=" stroke:none;fill-rule:nonzero;fill:rgb(100%,100%,100%);fill-opacity:1;" d="M 234.1875 146.09375 L 249.1875 146.09375 L 249.1875 157.09375 L 234.1875 157.09375 Z M 234.1875 146.09375 "/>
<g style="fill:rgb(100%,0%,0%);fill-opacity:1;">
  <use xlink:href="#glyph0-1" x="234.1875" y="154.756836"/>
  <use xlink:href="#glyph0-2" x="241.529297" y="154.756836"/>
</g>
<path style=" stroke:none;fill-rule:nonzero;fill:rgb(0%,0%,0%);fill-opacity:1;" d="M 126.4375 149.824219 L 134.066406 171.847656 L 141.144531 167.90625 Z M 126.4375 149.824219 "/>
<path style="fill:none;stroke-width:1.2;stroke-linecap:butt;stroke-linejoin:miter;stroke:rgb(0%,0%,0%);stroke-opacity:1;stroke-miterlimit:10;" d="M 137.605469 169.875 L 125.824219 189.574219 "/>
<path style="fill:none;stroke-width:1.2;stroke-linecap:butt;stroke-linejoin:miter;stroke:rgb(0%,0%,0%);stroke-opacity:1;stroke-miterlimit:10;" d="M 141.0625 174.617188 L 131.636719 190.375 "/>
<path style="fill:none;stroke-width:1.2;stroke-linecap:butt;stroke-linejoin:miter;stroke:rgb(0%,0%,0%);stroke-opacity:1;stroke-miterlimit:10;" d="M 160.554688 170.230469 L 137.605469 169.875 "/>
<path style="fill:none;stroke-width:1.2;stroke-linecap:butt;stroke-linejoin:miter;stroke:rgb(0%,0%,0%);stroke-opacity:1;stroke-miterlimit:10;" d="M 125.824219 189.574219 L 136.992188 209.625 "/>
<path style="fill:none;stroke-width:1.2;stroke-linecap:butt;stroke-linejoin:miter;stroke:rgb(0%,0%,0%);stroke-opacity:1;stroke-miterlimit:10;" d="M 136.992188 209.625 L 131.101562 219.476562 "/>
<path style="fill:none;stroke-width:1.2;stroke-linecap:butt;stroke-linejoin:miter;stroke:rgb(100%,0%,0%);stroke-opacity:1;stroke-miterlimit:10;" d="M 131.101562 219.476562 L 125.210938 229.324219 "/>
<path style="fill:none;stroke-width:1.2;stroke-linecap:butt;stroke-linejoin:miter;stroke:rgb(0%,0%,0%);stroke-opacity:1;stroke-miterlimit:10;" d="M 136.992188 209.625 L 159.941406 209.980469 "/>
<path style="fill:none;stroke-width:1.2;stroke-linecap:butt;stroke-linejoin:miter;stroke:rgb(0%,0%,0%);stroke-opacity:1;stroke-miterlimit:10;" d="M 139.371094 204.261719 L 157.730469 204.542969 "/>
<path style=" stroke:none;fill-rule:nonzero;fill:rgb(100%,100%,100%);fill-opacity:1;" d="M 110.210938 223.824219 L 125.210938 223.824219 L 125.210938 234.824219 L 110.210938 234.824219 Z M 110.210938 223.824219 "/>
<g style="fill:rgb(100%,0%,0%);fill-opacity:1;">
  <use xlink:href="#glyph0-2" x="110.210938" y="232.487305"/>
  <use xlink:href="#glyph0-1" x="117.225586" y="232.487305"/>
</g>
<path style="fill:none;stroke-width:1.2;stroke-linecap:butt;stroke-linejoin:miter;stroke:rgb(0%,0%,0%);stroke-opacity:1;stroke-miterlimit:10;" d="M 159.941406 209.980469 L 165.527344 220.003906 "/>
<path style="fill:none;stroke-width:1.2;stroke-linecap:butt;stroke-linejoin:miter;stroke:rgb(100%,0%,0%);stroke-opacity:1;stroke-miterlimit:10;" d="M 165.527344 220.003906 L 171.113281 230.03125 "/>
<path style="fill:none;stroke-width:1.2;stroke-linecap:butt;stroke-linejoin:miter;stroke:rgb(0%,0%,0%);stroke-opacity:1;stroke-miterlimit:10;" d="M 159.941406 209.980469 L 171.722656 190.28125 "/>
<path style=" stroke:none;fill-rule:nonzero;fill:rgb(100%,100%,100%);fill-opacity:1;" d="M 164.113281 224.53125 L 179.113281 224.53125 L 179.113281 235.53125 L 164.113281 235.53125 Z M 164.113281 224.53125 "/>
<g style="fill:rgb(100%,0%,0%);fill-opacity:1;">
  <use xlink:href="#glyph0-1" x="164.113281" y="233.194336"/>
  <use xlink:href="#glyph0-2" x="171.455078" y="233.194336"/>
</g>
<path style="fill:none;stroke-width:1.2;stroke-linecap:butt;stroke-linejoin:miter;stroke:rgb(0%,0%,0%);stroke-opacity:1;stroke-miterlimit:10;" d="M 171.722656 190.28125 L 183.199219 190.457031 "/>
<path style="fill:none;stroke-width:1.2;stroke-linecap:butt;stroke-linejoin:miter;stroke:rgb(100%,0%,0%);stroke-opacity:1;stroke-miterlimit:10;" d="M 183.199219 190.457031 L 194.675781 190.636719 "/>
<path style="fill:none;stroke-width:1.2;stroke-linecap:butt;stroke-linejoin:miter;stroke:rgb(0%,0%,0%);stroke-opacity:1;stroke-miterlimit:10;" d="M 171.722656 190.28125 L 160.554688 170.230469 "/>
<path style="fill:none;stroke-width:1.2;stroke-linecap:butt;stroke-linejoin:miter;stroke:rgb(0%,0%,0%);stroke-opacity:1;stroke-miterlimit:10;" d="M 165.890625 190.902344 L 156.953125 174.863281 "/>
<path style=" stroke:none;fill-rule:nonzero;fill:rgb(100%,100%,100%);fill-opacity:1;" d="M 187.675781 185.136719 L 202.675781 185.136719 L 202.675781 196.136719 L 187.675781 196.136719 Z M 187.675781 185.136719 "/>
<g style="fill:rgb(100%,0%,0%);fill-opacity:1;">
  <use xlink:href="#glyph0-1" x="187.675781" y="193.799805"/>
  <use xlink:href="#glyph0-2" x="195.017578" y="193.799805"/>
</g>
<path style="fill:none;stroke-width:1.2;stroke-linecap:butt;stroke-linejoin:miter;stroke:rgb(0%,0%,0%);stroke-opacity:1;stroke-miterlimit:10;" d="M 92.929688 89.667969 L 98.820312 79.816406 "/>
<path style="fill:none;stroke-width:1.2;stroke-linecap:butt;stroke-linejoin:miter;stroke:rgb(100%,0%,0%);stroke-opacity:1;stroke-miterlimit:10;" d="M 98.820312 79.816406 L 104.710938 69.96875 "/>
<path style="fill:none;stroke-width:1.2;stroke-linecap:butt;stroke-linejoin:miter;stroke:rgb(0%,0%,0%);stroke-opacity:1;stroke-miterlimit:10;" d="M 92.929688 89.667969 L 69.980469 89.3125 "/>
<path style="fill:none;stroke-width:1.2;stroke-linecap:butt;stroke-linejoin:miter;stroke:rgb(0%,0%,0%);stroke-opacity:1;stroke-miterlimit:10;" d="M 90.554688 95.03125 L 72.191406 94.75 "/>
<path style=" stroke:none;fill-rule:nonzero;fill:rgb(100%,100%,100%);fill-opacity:1;" d="M 97.710938 64.46875 L 112.710938 64.46875 L 112.710938 75.46875 L 97.710938 75.46875 Z M 97.710938 64.46875 "/>
<g style="fill:rgb(100%,0%,0%);fill-opacity:1;">
  <use xlink:href="#glyph0-1" x="97.710938" y="73.131836"/>
  <use xlink:href="#glyph0-2" x="105.052734" y="73.131836"/>
</g>
<path style="fill:none;stroke-width:1.2;stroke-linecap:butt;stroke-linejoin:miter;stroke:rgb(0%,0%,0%);stroke-opacity:1;stroke-miterlimit:10;" d="M 69.980469 89.3125 L 58.199219 109.011719 "/>
<path style="fill:none;stroke-width:1.2;stroke-linecap:butt;stroke-linejoin:miter;stroke:rgb(0%,0%,0%);stroke-opacity:1;stroke-miterlimit:10;" d="M 58.199219 109.011719 L 46.726562 108.835938 "/>
<path style="fill:none;stroke-width:1.2;stroke-linecap:butt;stroke-linejoin:miter;stroke:rgb(100%,0%,0%);stroke-opacity:1;stroke-miterlimit:10;" d="M 46.726562 108.835938 L 35.25 108.65625 "/>
<path style="fill:none;stroke-width:1.2;stroke-linecap:butt;stroke-linejoin:miter;stroke:rgb(0%,0%,0%);stroke-opacity:1;stroke-miterlimit:10;" d="M 58.199219 109.011719 L 69.367188 129.0625 "/>
<path style="fill:none;stroke-width:1.2;stroke-linecap:butt;stroke-linejoin:miter;stroke:rgb(0%,0%,0%);stroke-opacity:1;stroke-miterlimit:10;" d="M 64.035156 108.386719 L 72.96875 124.429688 "/>
<path style=" stroke:none;fill-rule:nonzero;fill:rgb(100%,100%,100%);fill-opacity:1;" d="M 20.25 103.15625 L 35.25 103.15625 L 35.25 114.15625 L 20.25 114.15625 Z M 20.25 103.15625 "/>
<g style="fill:rgb(100%,0%,0%);fill-opacity:1;">
  <use xlink:href="#glyph0-2" x="20.25" y="111.819336"/>
  <use xlink:href="#glyph0-1" x="27.264648" y="111.819336"/>
</g>
</g>
</svg>

<svg xmlns="http://www.w3.org/2000/svg" xmlns:xlink="http://www.w3.org/1999/xlink" width="300pt" height="300pt" viewBox="0 0 300 300"><defs><symbol overflow="visible"><path d="M.453 1.594v-7.938h4.5v7.938zm.5-.5h3.5v-6.938h-3.5zm0 0"/></symbol><symbol overflow="visible" id="a"><path d="M3.547-5.953c-.65 0-1.164.242-1.547.72-.375.48-.563 1.13-.563 1.952 0 .835.188 1.49.563 1.967.383.48.898.72 1.547.72.644 0 1.156-.24 1.53-.72.376-.476.564-1.132.564-1.968 0-.822-.187-1.474-.562-1.954-.375-.477-.887-.72-1.53-.72zm0-.734c.914 0 1.648.312 2.203.937.55.617.828 1.438.828 2.47 0 1.042-.277 1.87-.828 2.483-.555.617-1.29.922-2.203.922-.93 0-1.668-.305-2.22-.922C.774-1.41.5-2.237.5-3.28c0-1.033.273-1.853.828-2.47.55-.625 1.29-.938 2.22-.938zm0 0"/></symbol><symbol overflow="visible" id="b"><path d="M.89-6.563h.876v2.688H5v-2.688h.89V0H5v-3.125H1.766V0H.89zm0 0"/></symbol></defs><g><path fill="#fff" d="M0 0h300v300H0z"/><path d="M103.488 149.47l-5.586-10.03" stroke-width="1.2" stroke="#f00" stroke-miterlimit="10" fill="none"/><path d="M97.902 139.44L92.32 129.42M126.438 149.824l-11.477-.18" stroke-width="1.2" stroke="#000" stroke-miterlimit="10" fill="none"/><path d="M114.96 149.645l-11.472-.176" stroke-width="1.2" stroke="#f00" stroke-miterlimit="10" fill="none"/><path d="M99.488 143.97h8v11h-8zm0 0" fill="#fff"/><use xlink:href="#a" x="99.488" y="152.632" fill="#f00"/><path d="M92.32 129.418l11.782-19.7M88.863 124.676l9.422-15.758M69.367 129.063l22.953.355M104.102 109.72l22.95.354M104.102 109.72L92.93 89.667M127.05 110.074l11.17 20.05" stroke-width="1.2" stroke="#000" stroke-miterlimit="10" fill="none"/><path d="M138.22 130.125l22.885 4.402.125-8.097zm0 0"/><path d="M138.22 130.125l-11.782 19.7" stroke-width="1.2" stroke="#000" stroke-miterlimit="10" fill="none"/><path d="M161.168 130.477l5.89-9.848" stroke-width="1.2" stroke="#f00" stroke-miterlimit="10" fill="none"/><path d="M167.06 120.63l5.89-9.85" stroke-width="1.2" stroke="#000" stroke-miterlimit="10" fill="none"/><path d="M157.168 124.977h8v11h-8zm0 0" fill="#fff"/><use xlink:href="#a" x="157.168" y="133.64" fill="#f00"/><path d="M175.31 109.465l-5.583-10.024" stroke-width="1.2" stroke="#000" stroke-miterlimit="10" fill="none"/><path d="M169.727 99.44l-5.586-10.026" stroke-width="1.2" stroke="#f00" stroke-miterlimit="10" fill="none"/><path d="M170.59 112.094l-5.582-10.028" stroke-width="1.2" stroke="#000" stroke-miterlimit="10" fill="none"/><path d="M165.008 102.066l-5.586-10.023" stroke-width="1.2" stroke="#f00" stroke-miterlimit="10" fill="none"/><path d="M172.95 110.78l22.948.353" stroke-width="1.2" stroke="#000" stroke-miterlimit="10" fill="none"/><path d="M153.78 85.227h8v11h-8zm0 0" fill="#fff"/><use xlink:href="#a" x="153.781" y="93.89" fill="#f00"/><path d="M195.898 111.133l11.782-19.7M201.715 111.938l9.422-15.762M207.07 131.188l-11.172-20.055M207.68 91.434l22.953.355M230.633 91.79l5.89-9.85" stroke-width="1.2" stroke="#000" stroke-miterlimit="10" fill="none"/><path d="M236.523 81.94l5.89-9.85" stroke-width="1.2" stroke="#f00" stroke-miterlimit="10" fill="none"/><path d="M230.633 91.79l11.168 20.05M227.03 96.422l8.935 16.043" stroke-width="1.2" stroke="#000" stroke-miterlimit="10" fill="none"/><path d="M235.414 66.59h15v11h-15zm0 0" fill="#fff"/><g fill="#f00"><use xlink:href="#a" x="235.414" y="75.253"/><use xlink:href="#b" x="242.756" y="75.253"/></g><path d="M241.8 111.84l11.473.18" stroke-width="1.2" stroke="#000" stroke-miterlimit="10" fill="none"/><path d="M253.273 112.02l11.477.175" stroke-width="1.2" stroke="#f00" stroke-miterlimit="10" fill="none"/><path d="M241.8 111.84l-11.78 19.7" stroke-width="1.2" stroke="#000" stroke-miterlimit="10" fill="none"/><path d="M257.75 106.695h15v11h-15zm0 0" fill="#fff"/><g fill="#f00"><use xlink:href="#a" x="257.75" y="115.358"/><use xlink:href="#b" x="265.092" y="115.358"/></g><path d="M230.02 131.54l5.582 10.026" stroke-width="1.2" stroke="#000" stroke-miterlimit="10" fill="none"/><path d="M235.602 141.566l5.585 10.028" stroke-width="1.2" stroke="#f00" stroke-miterlimit="10" fill="none"/><path d="M230.02 131.54l-22.95-.352M227.81 126.105l-18.365-.285" stroke-width="1.2" stroke="#000" stroke-miterlimit="10" fill="none"/><path d="M234.188 146.094h15v11h-15zm0 0" fill="#fff"/><g fill="#f00"><use xlink:href="#a" x="234.188" y="154.757"/><use xlink:href="#b" x="241.529" y="154.757"/></g><path d="M126.438 149.824l7.628 22.024 7.08-3.942zm0 0"/><path d="M137.605 169.875l-11.78 19.7M141.063 174.617l-9.426 15.758M160.555 170.23l-22.95-.355M125.824 189.574l11.168 20.05M136.992 209.625l-5.89 9.852" stroke-width="1.2" stroke="#000" stroke-miterlimit="10" fill="none"/><path d="M131.102 219.477l-5.89 9.847" stroke-width="1.2" stroke="#f00" stroke-miterlimit="10" fill="none"/><path d="M136.992 209.625l22.95.355M139.37 204.262l18.36.28" stroke-width="1.2" stroke="#000" stroke-miterlimit="10" fill="none"/><path d="M110.21 223.824h15v11h-15zm0 0" fill="#fff"/><g fill="#f00"><use xlink:href="#b" x="110.211" y="232.487"/><use xlink:href="#a" x="117.226" y="232.487"/></g><path d="M159.94 209.98l5.587 10.024" stroke-width="1.2" stroke="#000" stroke-miterlimit="10" fill="none"/><path d="M165.527 220.004l5.586 10.027" stroke-width="1.2" stroke="#f00" stroke-miterlimit="10" fill="none"/><path d="M159.94 209.98l11.783-19.7" stroke-width="1.2" stroke="#000" stroke-miterlimit="10" fill="none"/><path d="M164.113 224.53h15v11h-15zm0 0" fill="#fff"/><g fill="#f00"><use xlink:href="#a" x="164.113" y="233.194"/><use xlink:href="#b" x="171.455" y="233.194"/></g><path d="M171.723 190.28l11.476.177" stroke-width="1.2" stroke="#000" stroke-miterlimit="10" fill="none"/><path d="M183.2 190.457l11.476.18" stroke-width="1.2" stroke="#f00" stroke-miterlimit="10" fill="none"/><path d="M171.723 190.28l-11.168-20.05M165.89 190.902l-8.937-16.04" stroke-width="1.2" stroke="#000" stroke-miterlimit="10" fill="none"/><path d="M187.676 185.137h15v11h-15zm0 0" fill="#fff"/><g fill="#f00"><use xlink:href="#a" x="187.676" y="193.8"/><use xlink:href="#b" x="195.018" y="193.8"/></g><path d="M92.93 89.668l5.89-9.852" stroke-width="1.2" stroke="#000" stroke-miterlimit="10" fill="none"/><path d="M98.82 79.816l5.89-9.847" stroke-width="1.2" stroke="#f00" stroke-miterlimit="10" fill="none"/><path d="M92.93 89.668l-22.95-.356M90.555 95.03l-18.364-.28" stroke-width="1.2" stroke="#000" stroke-miterlimit="10" fill="none"/><path d="M97.71 64.47h15v11h-15zm0 0" fill="#fff"/><g fill="#f00"><use xlink:href="#a" x="97.711" y="73.132"/><use xlink:href="#b" x="105.053" y="73.132"/></g><path d="M69.98 89.313l-11.78 19.7M58.2 109.012l-11.473-.176" stroke-width="1.2" stroke="#000" stroke-miterlimit="10" fill="none"/><path d="M46.727 108.836l-11.477-.18" stroke-width="1.2" stroke="#f00" stroke-miterlimit="10" fill="none"/><path d="M58.2 109.012l11.167 20.05M64.035 108.387l8.934 16.043" stroke-width="1.2" stroke="#000" stroke-miterlimit="10" fill="none"/><path d="M20.25 103.156h15v11h-15zm0 0" fill="#fff"/><g fill="#f00"><use xlink:href="#b" x="20.25" y="111.819"/><use xlink:href="#a" x="27.265" y="111.819"/></g></g></svg>
